**kern
*clefG2
*k[]
*M4/4
*MM87
=1
1r
=2
*k[f#c#g#d#a#]
2r
4r
8r
16BLL
16c#JJ
=3
8d#L
16BL
[16G#JJ
8G#L]
8c#J
8A#L
16F#L
[16D#JJ
8D#L]
8A#J
=4
8G#L
16F#L
[16BBJJ
8BBL]
8F#J
4D#
8r
16C#LL
16D#JJ
=5
4E
8BL
16A#L
16BJJ
4F#
8EL
16D#L
16EJJ
=6
8.EL
16EJk
8BL
16A#L
16G#JJ
4F#
8r
16BLL
16c#JJ
=7
8d#L
16BL
[16G#JJ
8G#L]
8c#J
8A#L
16F#L
[16D#JJ
8D#L]
8A#J
=8
8G#L
16F#L
[16BBJJ
8BBL]
8F#J
4D#
8r
16C#LL
16D#JJ
=9
4E
8F#L
16EL
16F#JJ
8D#L
8F#
8B
8d#J
=10
16c#KL
8.c#J
8.c#L
16BJk
4B
4r
=11
2r
4r
8r
16BLL
16c#JJ
=12
8d#L
16BL
[16G#JJ
8G#L]
8c#J
8A#L
16F#L
[16D#JJ
8D#L]
8A#J
=13
8G#L
16F#L
[16BBJJ
8BBL]
8F#J
4D#
8r
16C#LL
16D#JJ
=14
4E
8BL
16A#L
16BJJ
4F#
8EL
16D#L
16EJJ
=15
8.EL
16EJk
8BL
16A#L
16G#JJ
4F#
8r
16BLL
16c#JJ
=16
8d#L
16BL
[16G#JJ
8G#L]
8c#J
8A#L
16F#L
[16D#JJ
8D#L]
8A#J
=17
8G#L
16F#L
[16BBJJ
8BBL]
8F#J
4D#
8r
16C#LL
16D#JJ
=18
4E
8F#L
16EL
16F#JJ
8D#L
8F#
8B
8d#J
=19
16c#KL
8.c#J
8.c#L
16BJk
4B
4r
=20
8.G#L
16A#Jk
8BL
16A#L
16G#JJ
8F#L
8d#J
4d#
=21
8.c#L
16d#Jk
8eL
16d#L
16c#JJ
8BL
8c#J
4F#
=22
8.EL
16F#Jk
8G#L
16F#L
16EJJ
8D#L
8B
8B
8BJ
=23
4A#
8G#L
8A#J
4B'
16c#LL
16d#
16c#
16BJJ
=24
16G#KL
8.BJ
16d#KL
8.f#J
16c#KL
8.B'J
16c#LL
16d#
16c#
16BJJ
=25
16G#KL
8.BJ
16d#KL
8.f#J
16c#KL
8.B'J
16c#LL
16d#
16c#
16BJJ
=26
16G#KL
8.BJ
16d#KL
8.f#J
16g#KL
8.f#J
16f#KL
8.bJ
=27
16a#KL
8.f#J
16d#KL
8.f#J
4c#
16c#LL
16d#
16c#
16BJJ
=28
16G#KL
8.BJ
16d#KL
8.f#J
16c#KL
8.BJ
8BL
16c#L
16d#JJ
=29
16eKL
8.d#J
16c#KL
8.A#J
4B
8r
16BLL
16A#JJ
=30
8G#L
8A#
8B
8c#J
8BL
8F#J
16D#KL
8.F#J
=31
16G#KL
8.c#J
16A#KL
8.BJ
4B
8r
16BLL
16A#JJ
=32
8G#L
8A#
8B
8c#J
8BL
8F#J
16BKL
8.d#J
=33
16c#KL
8.d#J
16c#KL
8.BJ
4B
4r
=34
8D#L
8B
8f#
8BJ
8EL
8d#
8f#
8BJ
=35
8EL
8d#
8f#
8BJ
8D#L
8c#
8d#
8BJ
=36
8EL
8B
8f#
8BJ
8D#L
8c#
8f#
8BJ
=37
8BBL
8d#
8B
8EJ
8c#L
8D#J
8A#L
16BL
16c#JJ
=38
8d#L
16BL
[16G#JJ
8G#L]
8c#J
8A#L
16F#L
[16D#JJ
8D#L]
8A#J
=39
8G#L
16F#L
[16BBJJ
8BBL]
8F#J
4D#
8r
16C#LL
16D#JJ
=40
4E
8BL
16A#L
16BJJ
4F#
8EL
16D#L
16EJJ
=41
8.EL
16EJk
8BL
16A#L
16G#JJ
4F#
8r
16BLL
16c#JJ
=42
8d#L
16BL
[16G#JJ
8G#L]
8c#J
8A#L
16F#L
[16D#JJ
8D#L]
8A#J
=43
8G#L
16F#L
[16BBJJ
8BBL]
8F#J
4D#
8r
16C#LL
16D#JJ
=44
4E
8F#L
16EL
16F#JJ
8D#L
8F#
8B
8d#J
=45
16c#KL
8.d#J
8.c#L
16BJk
4B
4r
=46
8.G#L
16A#Jk
8BL
16A#L
16G#JJ
8F#L
8d#J
4d#
=47
8.c#L
16d#Jk
8eL
16d#L
16c#JJ
8BL
8c#J
4F#
=48
8.EL
16F#Jk
8G#L
16F#L
16EJJ
8D#L
8B
8B
8BJ
=49
4A#
8G#L
8A#J
4B'
16c#LL
16d#
16c#
16BJJ
=50
16G#KL
8.BJ
16d#KL
8.f#J
16c#KL
8.B'J
16c#LL
16d#
16c#
16BJJ
=51
16G#KL
8.BJ
16d#KL
8.f#J
16c#KL
8.B'J
16c#LL
16d#
16c#
16BJJ
=52
16G#KL
8.BJ
16d#KL
8.f#J
16g#KL
8.f#J
16f#KL
8.bJ
=53
16a#KL
8.f#J
16d#KL
8.f#J
4c#
16c#LL
16d#
16c#
16BJJ
=54
16G#KL
8.BJ
16d#KL
8.f#J
16c#KL
8.BJ
16BLL
16B
16c#
16d#JJ
=55
16eKL
8.d#J
16c#KL
8.A#J
4B
8r
16BLL
16A#JJ
=56
8G#L
8A#
8B
8c#J
8BL
8F#J
16D#KL
8.F#J
=57
16G#KL
8.c#J
16A#KL
8.BJ
4B
8r
16BLL
16A#JJ
=58
8G#L
8A#
8B
8c#J
8BL
8F#J
16BKL
8.d#J
=59
16c#KL
8.d#J
16c#KL
8.BJ
[2B
=60
2.B]
4r
=61||
*k[b-e-a-d-]
4E-
4B-
8cL
8B-J
4B-
=62
4F
8A-L
8GJ
2G
=63
4E-
4G
4A-
8GL
8FJ
=64
4F
4D-
2E-
=65
4E-
4B-
8cL
8B-J
4B-
=66
4F
8A-L
8GJ
2G
=67
4E-
4G
4A-
8GL
8FJ
=68
4F
4D-
4E-
16r
8CL
16D-Jk
=69
4E-
4B-
4c
8B-L
8FJ
=70
4F
8A-L
8GJ
4G
4r
=71
4E-
4G
4A-
4G
=72
4F
4D-
4E-
8r
16CLL
16D-JJ
=73
4E-
4B-
8cL
8B-J
4B-
=74
4d-
8d-L
8e-J
4e-
4B-
=75
4e-
4B-
4A-
4G
=76
4F
4G
8FL
8E-
8F
8GJ
=77
16cLL
16E-
16G
16E-JJ
16A-LL
16E-
16A-
16B-JJ
16cLL
16A-
16d-
16B-JJ
16e-LL
16B-
16f
16d-JJ
=78
16e-LL
16e-
16B-
16GJJ
16E-LL
16F
16G
16A-JJ
4c
16B-LL
16d-
16B-
16B-JJ
=79||
*k[b-e-a-]
16GKL
8.B-J
16dKL
8.fJ
16cKL
8.B-'J
16cLL
16d
16c
16B-JJ
=80
16GKL
8.B-J
16dKL
8.fJ
16cKL
8.B-'J
16cLL
16d
16c
16B-JJ
=81
16GKL
8.B-J
16dKL
8.fJ
16gKL
8.fJ
16fKL
8.b-J
=82
16a-KL
8.fJ
16dKL
8.fJ
4c
16cLL
16d
16c
16B-JJ
=83
16GKL
8.B-J
16dKL
8.fJ
16cKL
8.B-J
8B-L
16cL
16dJJ
=84
16e-KL
8.dJ
16cKL
8.A-J
4B-
8r
16B-LL
16A-JJ
=85
8GL
8A-
8B-
8cJ
8B-L
8FJ
16DKL
8.FJ
=86
16GKL
8.cJ
16A-KL
8.B-J
4B-
8r
16B-LL
16A-JJ
=87
8GL
8A-
8B-
8cJ
8B-L
8FJ
16B-KL
8.dJ
=88
16cKL
8.dJ
16A-KL
8.B-J
4B-
8r
16B-LL
16A-JJ
=89
8GL
8A-
8B-
8cJ
8B-L
8FJ
16DKL
8.FJ
=90
16GKL
8.cJ
16A-KL
8.B-J
[2B-
=91
1B-]
==
*-
